bootstrap/file-earmark-ruled-fill.svg

<svg viewBox="0 0 16 16" xmlns="http://www.w3.org/2000/svg"><path d="M9.293 0H4v0C2.89 0 2 .89 2 2v12 0c0 1.1.89 2 2 2h8v0c1.1 0 2-.9 2-2V4.7v-.001c-.01-.27-.11-.52-.3-.71L9.99.28V.28c-.19-.19-.45-.3-.71-.3Zm.2 3.5v-2l3 3h-2v0c-.56 0-1-.45-1-1ZM2.99 9h10v1h-7v2h7v1h-7v2h-1v-2h-2v-1h2v-2h-2V9Z"/></svg>

<svg xmlns="http://www.w3.org/2000/svg" width="16" height="16" fill="currentColor" class="bi bi-file-earmark-ruled-fill" viewBox="0 0 16 16">
  <path d="M9.293 0H4a2 2 0 0 0-2 2v12a2 2 0 0 0 2 2h8a2 2 0 0 0 2-2V4.707A1 1 0 0 0 13.707 4L10 .293A1 1 0 0 0 9.293 0M9.5 3.5v-2l3 3h-2a1 1 0 0 1-1-1M3 9h10v1H6v2h7v1H6v2H5v-2H3v-1h2v-2H3z"/>
</svg>
